Dominus_Funeral/22/apps/gnome-foot.svg

<svg xmlns="http://www.w3.org/2000/svg" width="24" height="24"><defs><linearGradient id="b"><stop offset="0" stop-color="#d7e3f4"/><stop offset=".41" stop-color="#acf"/><stop offset="1" stop-color="#5f8dd3"/></linearGradient><linearGradient id="c"><stop offset="0" stop-color="#216778"/><stop offset="1" stop-color="#c83771"/></linearGradient><linearGradient id="a"><stop offset="0"/><stop offset="1" stop-opacity="0"/></linearGradient></defs><path d="M18.77 1.35c-4.2 0-5 6.4-2.64 6.4 2.38 0 6.84-6.36 2.64-6.36zm-6.27.77a1.34 1.34 0 0 0-.41 0c-2.39.32-1.56 4.84-.26 4.93 1.2.1 2.5-4.63.67-4.93zm-4.73 1.4a1.53 1.53 0 0 0-.41.1c-2.23.85-.32 4.36.95 4.13 1.15-.22 1.27-4.43-.54-4.23zM4.81 6.36a1.2 1.2 0 0 0-.64.18c-1.87 1.09.64 3.73 1.69 3.31.95-.35.35-3.47-1.05-3.5zm8.62 2.13c-3.3-.08-7.66 1.65-8.43 5.15-.8 3.78 3.35 9 7.63 9 2.14 0 4.56-2 5.03-4.52.32-1.94-4.39-1.17-4.23.1.13 1.05-.41 1.59-1.17 1.59-1.02-.1-1.53-.7-1.69-1.6-.16-2.35 7.25-4.03 6.69-7.7-.23-1.33-1.86-2-3.83-2.03z" fill="#1a1a1a"/></svg>

<?xml version="1.0" encoding="UTF-8" standalone="no"?>
<svg
   xmlns:dc="http://purl.org/dc/elements/1.1/"
   xmlns:cc="http://creativecommons.org/ns#"
   xmlns:rdf="http://www.w3.org/1999/02/22-rdf-syntax-ns#"
   xmlns:svg="http://www.w3.org/2000/svg"
   xmlns="http://www.w3.org/2000/svg"
   xmlns:sodipodi="http://sodipodi.sourceforge.net/DTD/sodipodi-0.dtd"
   xmlns:inkscape="http://www.inkscape.org/namespaces/inkscape"
   width="24"
   height="24"
   version="1.1"
   id="svg23"
   sodipodi:docname="gnome-foot.svg"
   inkscape:version="0.92.4 (5da689c313, 2019-01-14)">
  <metadata
     id="metadata27">
    <rdf:RDF>
      <cc:Work
         rdf:about="">
        <dc:format>image/svg+xml</dc:format>
        <dc:type
           rdf:resource="http://purl.org/dc/dcmitype/StillImage" />
        <dc:title></dc:title>
      </cc:Work>
    </rdf:RDF>
  </metadata>
  <sodipodi:namedview
     pagecolor="#ffffff"
     bordercolor="#666666"
     borderopacity="1"
     objecttolerance="10"
     gridtolerance="10"
     guidetolerance="10"
     inkscape:pageopacity="0"
     inkscape:pageshadow="2"
     inkscape:window-width="1138"
     inkscape:window-height="480"
     id="namedview25"
     showgrid="false"
     inkscape:zoom="9.8333333"
     inkscape:cx="1.0677966"
     inkscape:cy="12"
     inkscape:window-x="0"
     inkscape:window-y="25"
     inkscape:window-maximized="0"
     inkscape:current-layer="svg23" />
  <defs
     id="defs19">
    <linearGradient
       id="b">
      <stop
         offset="0"
         stop-color="#d7e3f4"
         id="stop2" />
      <stop
         offset=".41"
         stop-color="#acf"
         id="stop4" />
      <stop
         offset="1"
         stop-color="#5f8dd3"
         id="stop6" />
    </linearGradient>
    <linearGradient
       id="c">
      <stop
         offset="0"
         stop-color="#216778"
         id="stop9" />
      <stop
         offset="1"
         stop-color="#c83771"
         id="stop11" />
    </linearGradient>
    <linearGradient
       id="a">
      <stop
         offset="0"
         id="stop14" />
      <stop
         offset="1"
         stop-opacity="0"
         id="stop16" />
    </linearGradient>
  </defs>
  <path
     d="m 18.77,1.35 c -4.2,0 -5,6.4 -2.64,6.4 2.38,0 6.84,-6.36 2.64,-6.36 z M 12.5,2.12 a 1.34,1.34 0 0 0 -0.41,0 c -2.39,0.32 -1.56,4.84 -0.26,4.93 1.2,0.1 2.5,-4.63 0.67,-4.93 z M 7.77,3.52 A 1.53,1.53 0 0 0 7.36,3.62 C 5.13,4.47 7.04,7.98 8.31,7.75 9.46,7.53 9.58,3.32 7.77,3.52 Z M 4.81,6.36 A 1.2,1.2 0 0 0 4.17,6.54 C 2.3,7.63 4.81,10.27 5.86,9.85 6.81,9.5 6.21,6.38 4.81,6.35 Z m 8.62,2.13 C 10.13,8.41 5.77,10.14 5,13.64 c -0.8,3.78 3.35,9 7.63,9 2.14,0 4.56,-2 5.03,-4.52 0.32,-1.94 -4.39,-1.17 -4.23,0.1 0.13,1.05 -0.41,1.59 -1.17,1.59 -1.02,-0.1 -1.53,-0.7 -1.69,-1.6 -0.16,-2.35 7.25,-4.03 6.69,-7.7 -0.23,-1.33 -1.86,-2 -3.83,-2.03 z"
     id="path21"
     inkscape:connector-curvature="0"
     style="fill:#1a1a1a" />
</svg>
